X: 19671
T: Jennie Hardie's
R: reel
M: 4/4
K: Fmajor
c|:AF~F2CFAc|BG~G2DGBd|cA~A2FAcf|ecdB cABG|
AF~F2CFAc|BGDB, DGBG|Acfa bagf|ecgef2fc:|
|:Accf afaf|dcBA BAGF|EGc=B cege|gaba gecB|
Accf afaf|gfed cfcB|Aagf Bbag|afgef2fc:|

